brandFactory_export/3.Masa/Flotador socorrista piscina_3Masa.svg

<?xml version="1.0" encoding="UTF-8"?>
<svg width="24px" height="24px" viewBox="0 0 24 24" version="1.1" xmlns="http://www.w3.org/2000/svg" xmlns:xlink="http://www.w3.org/1999/xlink">
    <title>3.Masa/Flotador socorrista piscina_3Masa</title>
    <g id="Symbols" stroke="none" stroke-width="1" fill="none" fill-rule="evenodd">
        <g id="3.Masa/Flotador-socorrista-piscina_3Masa" fill="#5CB615" fill-rule="nonzero">
            <path d="M15.3042017,21.7378151 L14.6184874,18.410084 C16.0537815,17.9193277 17.6470588,16.8806723 18.4067227,14.7058824 L21.7142857,15.3882353 C20.6554622,19.4319328 17.8084034,21.092437 15.3042017,21.7378151 Z M12.1042017,17.3747899 C11.9865546,17.3781513 11.8487395,17.3781513 11.7109244,17.3781513 L11.5092437,17.3781513 C10.7361345,17.3647059 9.97310924,17.2168067 9.25042017,16.9478992 C7.22689076,16.1613445 6.24537815,14.4739496 6.24537815,11.7915966 C6.24537815,7.00504202 9.50588235,6.26218487 11.4521008,6.24537815 L11.5697479,6.24537815 C11.7411765,6.24537815 11.9193277,6.2487395 12.0705882,6.25210084 C16.8605042,6.36638655 17.3781513,10.1915966 17.3781513,11.8319328 C17.3781513,13.4722689 16.8672269,17.2907563 12.1042017,17.3747899 L12.1042017,17.3747899 Z M8.31932773,21.7512605 C5.82184874,21.1092437 2.98487395,19.4487395 1.91932773,15.3882353 L5.2302521,14.7058824 C5.9394958,16.7428571 7.36470588,17.7983193 8.71932773,18.3226891 C8.81680672,18.3630252 8.91092437,18.3831933 9.00840336,18.4168067 L8.31932773,21.7512605 Z M8.2789916,1.8487395 L8.97142857,5.18991597 C7.50588235,5.68067227 5.88571429,6.75630252 5.15966387,9.06218487 L1.85882353,8.37983193 C2.87058824,4.15798319 5.75798319,2.48067227 8.2789916,1.8487395 Z M15.3277311,1.92605042 C17.8487395,2.60504202 20.6991597,4.30252101 21.7344538,8.38655462 L18.4403361,9.06554622 C17.7008403,6.83361345 16.097479,5.75798319 14.6420168,5.24369748 L15.3277311,1.92605042 Z M12.3058824,0.0134453782 C12.0336134,0.00336134454 11.7176471,0 11.4117647,0 L11.189916,0 C8.81680672,0.0201680672 0,0.833613445 0,11.7747899 C0,22.7294118 8.90084034,23.5865546 11.2705882,23.6235294 C11.6302521,23.6268908 11.9932773,23.6268908 12.3529412,23.6201681 C14.6084034,23.5764706 23.6235294,22.7327731 23.6235294,11.8453782 C23.6235294,0.981512605 14.6218487,0.0672268908 12.3058824,0.0134453782 Z" id="Flotador-socorrista-piscina_3Masa"></path>
        </g>
    </g>
</svg>

<svg width="24" height="24" viewBox="0 0 24 24" xmlns="http://www.w3.org/2000/svg"><path d="M15.304 21.738l-.686-3.328c1.436-.49 3.03-1.53 3.789-3.704l3.307.682c-1.059 4.044-3.906 5.704-6.41 6.35zm-3.2-4.363c-.117.003-.255.003-.393.003h-.202a6.818 6.818 0 01-2.259-.43c-2.023-.787-3.005-2.474-3.005-5.156 0-4.787 3.26-5.53 5.207-5.547h.118c.171 0 .35.004.5.007 4.79.114 5.308 3.94 5.308 5.58 0 1.64-.51 5.459-5.274 5.543zM8.32 21.75c-2.497-.642-5.334-2.302-6.4-6.363l3.311-.682c.71 2.037 2.135 3.092 3.49 3.617.097.04.19.06.288.094L8.32 21.75zM8.28 1.85l.692 3.34c-1.465.492-3.085 1.567-3.811 3.873L1.859 8.38c1.012-4.222 3.899-5.9 6.42-6.531zm7.049.077c2.52.679 5.371 2.377 6.406 6.46l-3.294.68c-.74-2.232-2.343-3.308-3.798-3.822l.686-3.318zM12.306.013C12.034.003 11.718 0 11.412 0h-.222C8.817.02 0 .834 0 11.775c0 10.954 8.9 11.812 11.27 11.849.36.003.723.003 1.083-.004 2.255-.044 11.27-.887 11.27-11.775C23.624.982 14.623.067 12.307.013z" fill="#5CB615" fill-rule="nonzero"/></svg>
